X: 42328
T: Wee Man From Uist, The
R: strathspey
M: 4/4
K: Dmajor
e2|:A/A/A A>B d2 e>d|B2 A2 A4|d>d d>e {f}g2 a>f|e2 A/A/A B2 G2|
d>d d>e {f}g4|f>e d<f e2 a2|A/A/A A>B d2 e>d|B2 A2 A4:|
|:d>d d>e {f}g4|a>g f<g e4|d>d d>e {f}g2 a>f|e2 A/A/A B2 G2|
d>d d>e {f}g4|f>e d<f e2 a2|A/A/A A>B d2 e>d|B2 A2 A4:|

